img/sticky-open.svg

<svg clip-rule="evenodd" fill-rule="evenodd" stroke-linejoin="round" stroke-miterlimit="2" viewBox="0 0 800 800" xmlns="http://www.w3.org/2000/svg"><g fill="#fff" stroke="#fff"><path d="m66.667 600c0-62.853 0-94.28 19.526-113.807 19.526-19.526 50.953-19.526 113.807-19.526s94.281 0 113.807 19.526c19.526 19.527 19.526 50.954 19.526 113.807s0 94.28-19.526 113.807c-19.526 19.526-50.953 19.526-113.807 19.526s-94.281 0-113.807-19.526c-19.526-19.527-19.526-50.954-19.526-113.807z" fill-rule="nonzero"/><path d="m115.482 115.482c-48.815 48.816-48.815 127.383-48.815 284.518 0 13.187 0 25.82.029 37.927 16.936-11.104 35.598-15.967 53.491-18.374 21.52-2.893 47.976-2.89 76.83-2.886h5.967c28.854-.004 55.31-.007 76.83 2.886 23.699 3.187 48.747 10.684 69.349 31.284 20.6 20.603 28.097 45.65 31.284 69.35 2.893 21.52 2.89 47.976 2.886 76.83v5.966c.004 28.857.007 55.31-2.886 76.83-2.407 17.894-7.267 36.554-18.374 53.49 12.11.03 24.74.03 37.927.03 157.133 0 235.703 0 284.517-48.816 48.816-48.814 48.816-127.384 48.816-284.517 0-157.135 0-235.702-48.816-284.518-48.814-48.815-127.384-48.815-284.517-48.815-157.135 0-235.702 0-284.518 48.815zm409.518 309.518c13.807 0 25-11.193 25-25s-11.193-25-25-25h-64.643l123.986-123.989c9.764-9.763 9.764-25.592 0-35.355-9.763-9.763-25.59-9.763-35.353 0l-123.99 123.987v-64.643c0-13.807-11.193-25-25-25s-25 11.193-25 25v125c0 13.807 11.193 25 25 25z"/></g></svg>

<?xml version="1.0" encoding="UTF-8" standalone="no"?>
<svg width="100%" height="100%" viewBox="0 0 800 800" version="1.1" xmlns="http://www.w3.org/2000/svg"
     style="fill-rule:evenodd;clip-rule:evenodd;stroke-linejoin:round;stroke-miterlimit:2;">
    <g transform="matrix(0.750001,0,0,0.750001,99.9997,99.9997)">
        <path fill="black" d="M66.667,600C66.667,537.147 66.667,505.72 86.193,486.193C105.719,466.667 137.146,466.667 200,466.667C262.854,466.667 294.281,466.667 313.807,486.193C333.333,505.72 333.333,537.147 333.333,600C333.333,662.853 333.333,694.28 313.807,713.807C294.281,733.333 262.854,733.333 200,733.333C137.146,733.333 105.719,733.333 86.193,713.807C66.667,694.28 66.667,662.853 66.667,600ZM115.482,115.482C164.298,66.667 242.865,66.667 400,66.667C557.133,66.667 635.703,66.667 684.517,115.482C733.333,164.298 733.333,242.865 733.333,400C733.333,557.133 733.333,635.703 684.517,684.517C635.703,733.333 557.133,733.333 400,733.333C386.813,733.333 374.183,733.333 362.073,733.303C373.18,716.367 378.04,697.707 380.447,679.813C383.34,658.293 383.337,631.84 383.333,602.983L383.333,597.017C383.337,568.163 383.34,541.707 380.447,520.187C377.26,496.487 369.763,471.44 349.163,450.837C328.561,430.237 303.513,422.74 279.814,419.553C258.294,416.66 231.838,416.663 202.984,416.667L197.017,416.667C168.163,416.663 141.707,416.66 120.187,419.553C102.294,421.96 83.632,426.823 66.696,437.927C66.667,425.82 66.667,413.187 66.667,400C66.667,242.865 66.667,164.298 115.482,115.482ZM525,425C538.807,425 550,413.807 550,400C550,386.193 538.807,375 525,375L460.357,375L584.343,251.011C594.107,241.248 594.107,225.419 584.343,215.656C574.58,205.893 558.753,205.893 548.99,215.656L425,339.643L425,275C425,261.193 413.807,250 400,250C386.193,250 375,261.193 375,275L375,400C375,413.807 386.193,425 400,425L525,425Z"
              style="stroke:white;stroke-width:1px;"/>
    </g>
</svg>
